src/img/svg/bitbucket.svg

<?xml version="1.0" encoding="utf-8"?><!-- Uploaded to: SVG Repo, www.svgrepo.com, Generator: SVG Repo Mixer Tools -->
<svg width="800px" height="800px" viewBox="0 0 32 32" fill="none" xmlns="http://www.w3.org/2000/svg">
<path d="M2.9087 3.00008C2.64368 2.99655 2.3907 3.11422 2.21764 3.32152C2.04458 3.52883 1.96915 3.80455 2.01158 4.07472L5.81987 27.9484C5.91782 28.5515 6.42093 28.9949 7.01305 28.9999H25.283C25.7274 29.0058 26.109 28.6748 26.1801 28.2217L29.9884 4.07935C30.0309 3.80918 29.9554 3.53346 29.7824 3.32615C29.6093 3.11885 29.3563 3.00118 29.0913 3.00471L2.9087 3.00008ZM18.9448 20.2546H13.1135L11.5346 11.7362H20.3578L18.9448 20.2546Z" fill="#2684FF"/>
<path fill-rule="evenodd" clip-rule="evenodd" d="M28.7778 11.7363H20.3582L18.9453 20.2547H13.114L6.22852 28.6944C6.44675 28.8892 6.725 28.9976 7.0135 29.0001H25.2879C25.7324 29.006 26.114 28.675 26.1851 28.2219L28.7778 11.7363Z" fill="url(#paint0_linear_87_7932)"/>
<defs>
<linearGradient id="paint0_linear_87_7932" x1="30.7245" y1="14.1218" x2="20.5764" y2="28.0753" gradientUnits="userSpaceOnUse">
<stop offset="0.18" stop-color="#0052CC"/>
<stop offset="1" stop-color="#2684FF"/>
</linearGradient>
</defs>
</svg>

<!-- Generated by IcoMoon.io -->
<svg version="1.1" xmlns="http://www.w3.org/2000/svg" width="32" height="32" viewBox="0 0 32 32">
<title>bitbucket</title>
<path fill="#2684ff" d="M2.909 3c-0.265-0.004-0.518 0.114-0.691 0.321s-0.248 0.483-0.206 0.753l3.808 23.874c0.098 0.603 0.601 1.047 1.193 1.052h18.27c0.444 0.006 0.826-0.325 0.897-0.778l3.808-24.142c0.043-0.27-0.033-0.546-0.206-0.753s-0.426-0.325-0.691-0.321l-26.183-0.005zM18.945 20.255h-5.831l-1.579-8.518h8.823l-1.413 8.518z"></path>
<path fill="#000" d="M28.778 11.736h-8.42l-1.413 8.518h-5.831l-6.885 8.44c0.218 0.195 0.496 0.303 0.785 0.306h18.274c0.445 0.006 0.826-0.325 0.897-0.778l2.593-16.486z"></path>
</svg>
